X:8223
T:Johnny's Wedding
R:reel
D:Martin Hayes
Z:id:hn-reel-683
M:C|
K:Gdor
A|BGdG BGGB|AFcF AFFA|BGdG BGGB|AGFD G2GA|
BGdG BGGB|AFcF AFFA|GBAc Bdce|dgfa g3:|
|:a|bgag fdde|fdcB AcFa|bgag fdcf|dgfa g3a|
bgag fdde|fdcB AcFA|GBAc Bdce|dgfa g3:|
